src/assets/img/action_and_leasing-list/icon4.svg

<svg width="50" height="50" viewBox="0 0 50 50" fill="none" xmlns="http://www.w3.org/2000/svg">
<path d="M46.0938 25C47.8172 25 49.2188 23.5984 49.2188 21.875C49.2188 20.1516 47.8172 18.75 46.0938 18.75C46.0938 17.8883 45.393 17.1875 44.5312 17.1875H43.1578C42.3344 17.1875 41.5297 17.5211 40.9484 18.1031L40.3016 18.75H29.4797C29.0938 18.75 28.7609 18.4617 28.707 18.0797L28.5086 16.6898C29.1078 16.1875 29.593 15.557 29.9336 14.8445H30.4688C32.1922 14.8445 33.5938 13.443 33.5938 11.7195C33.5938 11.0789 33.3984 10.4836 33.0664 9.98672C33.4062 9.17578 33.5938 8.30156 33.5938 7.42188C33.5938 3.76016 30.6148 0.78125 26.9531 0.78125H23.0469C19.3852 0.78125 16.4062 3.76016 16.4062 7.42188C16.4062 8.30156 16.5937 9.17578 16.9336 9.98594C16.6016 10.482 16.4062 11.0781 16.4062 11.7188C16.4062 13.4422 17.8078 14.8438 19.5312 14.8438H20.0664C20.4062 15.557 20.8922 16.1867 21.4914 16.6891L21.293 18.0789C21.2391 18.4617 20.9062 18.75 20.5203 18.75H9.69844L9.05156 18.1031C8.47031 17.5211 7.66563 17.1875 6.84219 17.1875H5.46875C4.60703 17.1875 3.90625 17.8883 3.90625 18.75C2.18281 18.75 0.78125 20.1516 0.78125 21.875C0.78125 23.5984 2.18281 25 3.90625 25H9.97109L8.86016 30.1867C5.525 31.3687 3.125 34.5461 3.125 38.2812C3.125 43.0195 6.98047 46.875 11.7188 46.875C13.7547 46.875 15.6664 46.1758 17.1875 44.9141V49.2188H23.2375L25 43.3445L26.7625 49.2188H32.8125V44.9141C34.3336 46.1758 36.2453 46.875 38.2812 46.875C43.0195 46.875 46.875 43.0195 46.875 38.2812C46.875 34.5461 44.475 31.3687 41.1398 30.1867L40.0289 25H46.0938ZM32.8125 31.6477V25.7812C32.8125 25.3508 33.1625 25 33.5938 25H36.5336L35.425 30.1734C34.4758 30.5055 33.5922 31.0008 32.8125 31.6477ZM33.5938 23.4375C32.3016 23.4375 31.25 24.4891 31.25 25.7812V34.375C31.25 34.8055 30.9 35.1562 30.4688 35.1562H19.5312C19.1 35.1562 18.75 34.8055 18.75 34.375V25.7812C18.75 24.4891 17.6984 23.4375 16.4062 23.4375H10.1562V20.3125H19.8984L21.4516 26.5281L23.1594 24.8203L23.4102 25.1969L22.6187 32.3188L25 34.6984L27.3805 32.318L26.5891 25.1961L26.8398 24.8195L28.5477 26.5273L30.1016 20.3125H39.8438V23.4375H33.5938ZM10.9375 43.75V45.2664C9.58359 45.1156 8.34687 44.5789 7.33516 43.7695L8.40391 42.7008L7.29922 41.5961L6.23047 42.6648C5.42109 41.6531 4.88438 40.4164 4.73359 39.0625H6.25V37.5H4.73359C4.88438 36.1461 5.42109 34.9094 6.23047 33.8977L7.29922 34.9664L8.40391 33.8617L7.33516 32.793C8.34687 31.9836 9.58359 31.4469 10.9375 31.2961V32.8125H12.5V31.2945C13.8344 31.4398 15.0742 31.9602 16.1062 32.7891L15.0336 33.8617L16.1383 34.9664L17.1875 33.9172V34.375C17.1875 34.9773 17.4227 35.5219 17.7969 35.9375C17.4219 36.3531 17.1875 36.8977 17.1875 37.5V42.6453L16.1383 41.5961L15.0336 42.7008L16.1055 43.7734C15.0742 44.6023 13.8336 45.1227 12.5 45.268V43.75H10.9375ZM17.1875 31.6477C16.4078 31.0008 15.5242 30.5055 14.5742 30.1734L13.4664 25H16.4062C16.8375 25 17.1875 25.3508 17.1875 25.7812V31.6477ZM23.8953 21.875L22.2984 23.4719L21.457 20.1063C21.6078 20.0398 21.7492 19.957 21.882 19.8609L23.8953 21.875ZM28.1187 19.8609C28.2516 19.957 28.3922 20.0398 28.543 20.1063L27.7016 23.4719L26.1047 21.875L28.1187 19.8609ZM25.7445 31.7445L25 32.4891L24.2555 31.7445L24.918 25.7812H25.0812L25.7445 31.7445ZM25.7133 23.693L25.3633 24.2188H24.6367L24.2859 23.693L25 22.9797L25.7133 23.693ZM43.1578 18.75H44.5312C44.5312 19.6117 43.8305 20.3125 42.9688 20.3125V21.875C44.1203 21.875 45.1172 21.2422 45.6594 20.3125H46.0938C46.9555 20.3125 47.6562 21.0133 47.6562 21.875C47.6562 22.7367 46.9555 23.4375 46.0938 23.4375H41.4062V19.8547L42.0531 19.2078C42.3438 18.9164 42.7469 18.75 43.1578 18.75ZM30.4688 13.2812H30.4062C30.443 13.025 30.4688 12.7656 30.4688 12.5V10.1562C31.3305 10.1562 32.0312 10.857 32.0312 11.7188C32.0312 12.5805 31.3305 13.2812 30.4688 13.2812ZM19.5312 13.2812C18.6695 13.2812 17.9688 12.5805 17.9688 11.7188C17.9688 10.857 18.6695 10.1562 19.5312 10.1562V12.5C19.5312 12.7656 19.557 13.025 19.5938 13.2812H19.5312ZM19.5312 7.03125V8.59375C19.0531 8.59375 18.6047 8.71016 18.1992 8.90312C18.0531 8.42344 17.9688 7.92422 17.9688 7.42188C17.9688 4.62187 20.2469 2.34375 23.0469 2.34375H26.9531C29.7531 2.34375 32.0312 4.62187 32.0312 7.42188C32.0312 7.92422 31.9469 8.42344 31.8008 8.90312C31.3953 8.71016 30.9469 8.59375 30.4688 8.59375H30.4031C30.1547 7.20469 29.1727 6.03594 27.7977 5.57812L27.2844 5.40625L26.9945 5.55078C25.0578 6.51953 22.8898 7.03125 20.725 7.03125H19.5312ZM21.0938 12.5V8.58906C23.2664 8.53672 25.4313 8.02344 27.3961 7.09297C28.3039 7.43828 28.9062 8.30625 28.9062 9.28359V12.5C28.9062 14.6539 27.1539 16.4062 25 16.4062C22.8461 16.4062 21.0938 14.6539 21.0938 12.5ZM25 17.9688C25.7266 17.9688 26.4195 17.8234 27.0547 17.5648L27.1594 18.3C27.1719 18.3867 27.1977 18.468 27.2195 18.5508L25 20.7703L22.7805 18.5508C22.8023 18.468 22.8281 18.3867 22.8406 18.3L22.9453 17.5648C23.5805 17.8234 24.2734 17.9688 25 17.9688ZM2.34375 21.875C2.34375 21.0133 3.04453 20.3125 3.90625 20.3125H4.34063C4.88281 21.2422 5.87969 21.875 7.03125 21.875V20.3125C6.16953 20.3125 5.46875 19.6117 5.46875 18.75H6.84219C7.25313 18.75 7.65625 18.9164 7.94688 19.2078L8.59375 19.8547V23.4375H3.90625C3.04453 23.4375 2.34375 22.7367 2.34375 21.875ZM11.5687 25H11.8688L12.8914 29.7742C12.5055 29.7219 12.1156 29.6875 11.7188 29.6875C11.3195 29.6875 10.9305 29.7242 10.5453 29.7773L11.5687 25ZM31.25 47.6562H27.925L26.4578 42.7672C25.9406 41.0422 24.6117 39.6727 22.9031 39.1031L22.4086 40.5852C23.0352 40.7938 23.5906 41.1523 24.0328 41.618C23.8266 41.9797 23.6617 42.3648 23.5414 42.7664L22.075 47.6562H18.75V37.5C18.75 37.0695 19.1 36.7188 19.5312 36.7188H30.4688C30.9 36.7188 31.25 37.0695 31.25 37.5V47.6562ZM45.3125 38.2812C45.3125 42.1578 42.1586 45.3125 38.2812 45.3125C36.1305 45.3125 34.1555 44.3531 32.8125 42.6852V37.5C32.8125 36.8977 32.5773 36.3531 32.2031 35.9375C32.5781 35.5219 32.8125 34.9773 32.8125 34.375V33.8766C34.1555 32.2086 36.1312 31.25 38.2812 31.25C42.1586 31.25 45.3125 34.4047 45.3125 38.2812ZM39.4547 29.7773C39.0695 29.7242 38.6805 29.6875 38.2812 29.6875C37.8844 29.6875 37.4945 29.7219 37.1086 29.7742L38.1312 25H38.4313L39.4547 29.7773Z" fill="#333333"/>
<path d="M37.5 32.8125V34.4883C36.5977 34.7742 35.9375 35.6094 35.9375 36.6047C35.9375 37.4547 36.4094 38.2188 37.1703 38.5992L38.693 39.3609C38.9211 39.4742 39.0625 39.7031 39.0625 39.9578C39.0625 40.3258 38.7625 40.625 38.3953 40.625H38.168C37.8 40.625 37.5 40.3258 37.5 39.9578V39.0625H35.9375V39.9578C35.9375 40.9531 36.5977 41.7883 37.5 42.0742V43.75H39.0625V42.0742C39.9648 41.7883 40.625 40.9531 40.625 39.9578C40.625 39.1078 40.1531 38.3437 39.3922 37.9633L37.8695 37.2016C37.6414 37.0883 37.5 36.8594 37.5 36.6047C37.5 36.2367 37.8 35.9375 38.1672 35.9375H38.3945C38.7625 35.9375 39.0625 36.2367 39.0625 36.6047V36.7188H40.625V36.6047C40.625 35.6094 39.9648 34.7742 39.0625 34.4883V32.8125H37.5Z" fill="#333333"/>
<path d="M12.5001 37.9578L9.92744 35.3851L8.82275 36.4898L10.9376 38.6047V40.625H12.5001V37.9578Z" fill="#333333"/>
</svg>

<svg width="50" height="50" fill="none" xmlns="http://www.w3.org/2000/svg"><path d="M46.094 25a3.128 3.128 0 003.125-3.125 3.128 3.128 0 00-3.125-3.125c0-.862-.701-1.563-1.563-1.563h-1.373c-.824 0-1.628.334-2.21.916l-.646.647H29.48a.784.784 0 01-.773-.67l-.198-1.39a5.501 5.501 0 001.425-1.846h.535a3.128 3.128 0 003.125-3.124 3.11 3.11 0 00-.528-1.733c.34-.811.528-1.685.528-2.565a6.648 6.648 0 00-6.64-6.64h-3.907a6.648 6.648 0 00-6.64 6.64c0 .88.187 1.754.527 2.564a3.107 3.107 0 00-.528 1.733 3.128 3.128 0 003.125 3.125h.535c.34.713.826 1.343 1.425 1.845l-.198 1.39a.784.784 0 01-.773.671H9.698l-.646-.647a3.143 3.143 0 00-2.21-.916H5.47c-.862 0-1.563.701-1.563 1.563a3.128 3.128 0 00-3.125 3.125A3.128 3.128 0 003.906 25h6.065l-1.11 5.187c-3.336 1.182-5.736 4.36-5.736 8.094 0 4.739 3.855 8.594 8.594 8.594a8.53 8.53 0 005.469-1.96v4.304h6.05L25 43.344l1.762 5.875h6.05v-4.305a8.519 8.519 0 005.47 1.961c4.738 0 8.593-3.855 8.593-8.594 0-3.735-2.4-6.912-5.735-8.094L40.029 25h6.065zm-13.282 6.648V25.78c0-.43.35-.781.782-.781h2.94l-1.109 5.173a8.458 8.458 0 00-2.612 1.475zm.782-8.21a2.347 2.347 0 00-2.344 2.343v8.594c0 .43-.35.781-.781.781H19.53a.782.782 0 01-.781-.781v-8.594a2.347 2.347 0 00-2.344-2.343h-6.25v-3.125h9.742l1.554 6.215 1.707-1.708.251.377-.791 7.122L25 34.699l2.38-2.381-.79-7.122.25-.377 1.708 1.708 1.554-6.215h9.742v3.125h-6.25zM10.937 43.75v1.516a6.997 6.997 0 01-3.602-1.496l1.069-1.07-1.105-1.104-1.069 1.069a6.997 6.997 0 01-1.496-3.602H6.25V37.5H4.734a6.997 6.997 0 011.496-3.602l1.07 1.068 1.104-1.104-1.069-1.069a6.997 6.997 0 013.603-1.497v1.517H12.5v-1.519a6.937 6.937 0 013.606 1.495l-1.072 1.073 1.104 1.104 1.05-1.049v.458c0 .602.235 1.147.609 1.563-.375.415-.61.96-.61 1.562v5.145l-1.049-1.049-1.104 1.105 1.071 1.072a6.935 6.935 0 01-3.605 1.495V43.75h-1.563zm6.25-12.102a8.453 8.453 0 00-2.613-1.475L13.466 25h2.94c.431 0 .782.35.782.781v5.867zm6.708-9.773l-1.597 1.597-.841-3.366c.15-.066.292-.149.425-.245l2.013 2.014zm4.224-2.014c.133.096.273.179.424.245l-.841 3.366-1.597-1.597 2.014-2.014zm-2.375 11.883L25 32.49l-.744-.744.662-5.964h.163l.663 5.963zm-.03-8.051l-.35.526h-.727l-.351-.526.714-.713.713.713zm17.444-4.943h1.373c0 .862-.7 1.563-1.562 1.563v1.562a3.115 3.115 0 002.69-1.563h.435a1.564 1.564 0 010 3.126h-4.688v-3.583l.647-.647c.29-.292.694-.458 1.105-.458zm-12.69-5.469h-.062c.037-.256.063-.515.063-.781v-2.344a1.564 1.564 0 010 3.125zm-10.937 0a1.563 1.563 0 010-3.125V12.5c0 .266.026.525.063.781h-.063zm0-6.25v1.563c-.478 0-.926.116-1.332.31a5.094 5.094 0 01-.23-1.482c0-2.8 2.278-5.078 5.078-5.078h3.906c2.8 0 5.078 2.278 5.078 5.078 0 .502-.084 1.001-.23 1.481a3.087 3.087 0 00-1.332-.31h-.066a3.897 3.897 0 00-2.605-3.015l-.514-.172-.29.145a14.086 14.086 0 01-6.269 1.48h-1.194zm1.563 5.469V8.59a15.668 15.668 0 006.302-1.497 2.34 2.34 0 011.51 2.19V12.5A3.91 3.91 0 0125 16.406a3.91 3.91 0 01-3.906-3.906zM25 17.969c.727 0 1.42-.146 2.055-.404l.104.735c.013.087.039.168.06.25L25 20.77l-2.22-2.22c.022-.082.048-.163.06-.25l.105-.735a5.436 5.436 0 002.055.404zM2.344 21.875c0-.862.7-1.563 1.562-1.563h.435a3.115 3.115 0 002.69 1.563v-1.563c-.861 0-1.562-.7-1.562-1.562h1.373c.411 0 .814.166 1.105.458l.647.647v3.582H3.906c-.861 0-1.562-.7-1.562-1.562zM11.569 25h.3l1.022 4.774a8.711 8.711 0 00-1.172-.087c-.4 0-.788.037-1.174.09L11.57 25zM31.25 47.656h-3.325l-1.467-4.889a5.546 5.546 0 00-3.555-3.664l-.494 1.482a3.968 3.968 0 011.624 1.033 5.512 5.512 0 00-.492 1.148l-1.466 4.89H18.75V37.5c0-.43.35-.781.781-.781H30.47c.431 0 .781.35.781.781v10.156zm14.063-9.375a7.04 7.04 0 01-7.032 7.032c-2.15 0-4.125-.96-5.468-2.628V37.5c0-.602-.236-1.147-.61-1.563.375-.415.61-.96.61-1.562v-.498a6.969 6.969 0 015.468-2.627 7.04 7.04 0 017.032 7.031zm-5.858-8.504a8.557 8.557 0 00-1.174-.09 8.75 8.75 0 00-1.172.087L38.13 25h.3l1.024 4.777z" fill="#333"/><path d="M37.5 32.813v1.675a2.226 2.226 0 00-1.563 2.117c0 .85.472 1.614 1.233 1.994l1.523.762a.668.668 0 01-.298 1.264h-.227a.669.669 0 01-.668-.667v-.895h-1.563v.895c0 .995.66 1.83 1.563 2.116v1.676h1.563v-1.676a2.226 2.226 0 001.562-2.116c0-.85-.472-1.614-1.233-1.995l-1.523-.761a.668.668 0 01.298-1.264h.227c.369 0 .669.299.669.667v.114h1.562v-.114c0-.996-.66-1.83-1.563-2.117v-1.675H37.5zm-25 5.145l-2.573-2.573-1.104 1.105 2.115 2.115v2.02H12.5v-2.667z" fill="#333"/></svg>
